dist/images/twitter.svg

<svg width="24" height="20" viewBox="0 0 24 20" fill="none" xmlns="http://www.w3.org/2000/svg">
<path d="M23.4561 2.44298C23.0791 2.61021 22.6915 2.75134 22.2954 2.86592C22.7643 2.3356 23.1218 1.7116 23.3401 1.02876C23.389 0.875705 23.3383 0.70817 23.2125 0.608067C23.0869 0.507886 22.9123 0.495886 22.7739 0.577873C21.9328 1.07676 21.0253 1.43529 20.0737 1.64494C19.1152 0.708325 17.8133 0.175293 16.4674 0.175293C13.6265 0.175293 11.3152 2.48649 11.3152 5.32732C11.3152 5.55106 11.3294 5.77356 11.3574 5.99297C7.83214 5.68344 4.55475 3.95072 2.30417 1.19003C2.22396 1.09163 2.1004 1.0386 1.9739 1.04874C1.84732 1.05865 1.73359 1.13003 1.66964 1.23973C1.21318 2.02298 0.971861 2.9188 0.971861 3.83026C0.971861 5.07168 1.41509 6.24953 2.19803 7.1699C1.95996 7.08744 1.72895 6.9844 1.50846 6.862C1.39008 6.79612 1.24562 6.79712 1.12802 6.86455C1.01034 6.93199 0.936558 7.05601 0.933462 7.19157C0.93292 7.21441 0.93292 7.23725 0.93292 7.2604C0.93292 9.11343 1.93024 10.7817 3.45501 11.691C3.32402 11.6779 3.1931 11.659 3.06304 11.6341C2.92895 11.6085 2.79106 11.6555 2.70064 11.7578C2.61005 11.86 2.58009 12.0024 2.62182 12.1325C3.18621 13.8945 4.63929 15.1906 6.39594 15.5858C4.93898 16.4983 3.27284 16.9763 1.52378 16.9763C1.15883 16.9763 0.791784 16.9548 0.432558 16.9123C0.254107 16.8911 0.0834745 16.9965 0.0227003 17.1662C-0.0380739 17.336 0.026339 17.5253 0.178158 17.6226C2.4251 19.0633 5.02322 19.8248 7.69147 19.8248C12.9369 19.8248 16.2184 17.3512 18.0474 15.2762C20.3282 12.6887 21.6362 9.26393 21.6362 5.88001C21.6362 5.73864 21.6341 5.59588 21.6297 5.45359C22.5296 4.77563 23.3043 3.95514 23.9347 3.01209C24.0305 2.86887 24.0201 2.67958 23.9092 2.54773C23.7984 2.41581 23.6138 2.37315 23.4561 2.44298Z" fill="#0094FF"/>
</svg>

<svg width="24" height="20" fill="none" xmlns="http://www.w3.org/2000/svg"><path d="M23.456 2.443a9.093 9.093 0 01-1.16.423 5.132 5.132 0 001.044-1.837.387.387 0 00-.566-.451 9.134 9.134 0 01-2.7 1.067 5.178 5.178 0 00-3.607-1.47 5.158 5.158 0 00-5.11 5.818A13.19 13.19 0 012.304 1.19a.387.387 0 00-.634.05 5.15 5.15 0 00-.698 2.59c0 1.242.443 2.42 1.226 3.34a4.365 4.365 0 01-.69-.308.387.387 0 00-.575.33v.068a5.17 5.17 0 002.522 4.431 4.43 4.43 0 01-.392-.057.387.387 0 00-.441.498 5.15 5.15 0 003.774 3.454 9.115 9.115 0 01-4.872 1.39c-.365 0-.732-.021-1.091-.064a.388.388 0 00-.255.71 13.894 13.894 0 007.513 2.203c5.246 0 8.527-2.474 10.356-4.549 2.281-2.587 3.59-6.012 3.59-9.396 0-.141-.003-.284-.007-.426.9-.678 1.674-1.499 2.305-2.442a.387.387 0 00-.479-.569z" fill="#0094FF"/></svg>
